X:64
T:An tSeanbhean Bhocht
R:hornpipe
D:Padhraic MacMathuna: Blas na Meala
Z:id:hn-hornpipe-64
M:C|
K:G
(3ABc|dggf gedc|B2G2 GBdB|ceag afdB|c2A2 A2Bc|
dggf g2BA|GDBD GBdB|ceaf gedc|B2G2 G2:|
|:dc|(3Bcd gd (3Bcd gd|(3Bcd cA GBdB|ceae ceae|cABG A2dc|
(3Bcd gd (3Bcd gd|(3Bcd cA GBdB|ceaf gedc|B2G2 G2:|
|:ga|(3bag af gedc|B2G2 G2ab|(3c'ba bg afdB|c2A2 A2ga|
(3bag af g2BA|GDBD GBdB|ceaf gedc|B2G2 G2:|
<end>
<start>
